src/icons/svgs/24/arrow-left.svg

<svg width="24" height="24" viewBox="0 0 24 24" fill="none" xmlns="http://www.w3.org/2000/svg">
<path d="M22 12.0002C22 12.5523 21.5427 13.0007 20.9797 13.0007H6.56515L12.2045 18.276C12.6135 18.6575 12.6281 19.2932 12.239 19.6903C11.8499 20.0901 11.2046 20.1044 10.7966 19.7242L3.3172 12.7237C3.11419 12.5377 3 12.2752 3 12.0002C3 11.7251 3.11419 11.4668 3.31605 11.2751L10.7955 4.27464C11.2016 3.89586 11.8475 3.91003 12.2385 4.31006C12.6276 4.70592 12.613 5.34138 12.2039 5.72432L6.56459 10.9997H21.0178C21.5793 11.0001 22 11.4501 22 12.0002Z" fill="black"/>
</svg>

<svg width="24" height="24" viewBox="0 0 24 24" xmlns="http://www.w3.org/2000/svg">
    <path d="M22 12c0 .552-.457 1-1.02 1H6.565l5.64 5.276a.985.985 0 0 1 .034 1.414c-.39.4-1.034.414-1.442.034l-7.48-7A.98.98 0 0 1 3 12c0-.275.114-.533.316-.725l7.48-7a1.038 1.038 0 0 1 1.443.035.985.985 0 0 1-.035 1.414L6.564 11h14.454A.98.98 0 0 1 22 12Z"/>
</svg>
